germany/municipalities/07233043.svg

<?xml version="1.0" encoding="UTF-8" standalone="no"?>
<!-- Created with Inkscape (http://www.inkscape.org/) -->

<svg
   xmlns:dc="http://purl.org/dc/elements/1.1/"
   xmlns:cc="http://creativecommons.org/ns#"
   xmlns:rdf="http://www.w3.org/1999/02/22-rdf-syntax-ns#"
   xmlns:svg="http://www.w3.org/2000/svg"
   xmlns="http://www.w3.org/2000/svg"
   xmlns:sodipodi="http://sodipodi.sourceforge.net/DTD/sodipodi-0.dtd"
   xmlns:inkscape="http://www.inkscape.org/namespaces/inkscape"
   width="142.00993mm"
   height="160.25844mm"
   viewBox="0 0 142.00994 160.25844"
   version="1.1"
   id="svg8"
   inkscape:version="0.92.5 (2060ec1f9f, 2020-04-08)"
   sodipodi:docname="DEU Meisburg COA.svg">
  <defs
     id="defs2">
    <inkscape:path-effect
       effect="spiro"
       id="path-effect12566-8"
       is_visible="true" />
    <inkscape:path-effect
       effect="spiro"
       id="path-effect13166-1"
       is_visible="true" />
    <inkscape:path-effect
       effect="spiro"
       id="path-effect13014-2"
       is_visible="true" />
    <inkscape:path-effect
       effect="spiro"
       id="path-effect12606-5"
       is_visible="true" />
    <inkscape:path-effect
       effect="spiro"
       id="path-effect13858"
       is_visible="true" />
    <inkscape:path-effect
       effect="spiro"
       id="path-effect12498-4"
       is_visible="true" />
  </defs>
  <sodipodi:namedview
     id="base"
     pagecolor="#ffffff"
     bordercolor="#666666"
     borderopacity="1.0"
     inkscape:pageopacity="0.0"
     inkscape:pageshadow="2"
     inkscape:zoom="1.3092265"
     inkscape:cx="268.36523"
     inkscape:cy="302.8506"
     inkscape:document-units="mm"
     inkscape:current-layer="layer1"
     showgrid="false"
     inkscape:window-width="1920"
     inkscape:window-height="1046"
     inkscape:window-x="-11"
     inkscape:window-y="-11"
     inkscape:window-maximized="1"
     fit-margin-top="0"
     fit-margin-left="0"
     fit-margin-right="0"
     fit-margin-bottom="0"
     inkscape:snap-midpoints="true"
     inkscape:snap-smooth-nodes="true"
     inkscape:snap-nodes="true" />
  <metadata
     id="metadata5">
    <rdf:RDF>
      <cc:Work
         rdf:about="">
        <dc:format>image/svg+xml</dc:format>
        <dc:type
           rdf:resource="http://purl.org/dc/dcmitype/StillImage" />
        <dc:title></dc:title>
      </cc:Work>
    </rdf:RDF>
  </metadata>
  <g
     inkscape:label="Ebene 1"
     inkscape:groupmode="layer"
     id="layer1"
     transform="translate(247.22865,-204.76583)">
    <path
       style="fill:#ffffff;fill-rule:evenodd;stroke:none;stroke-width:0.79374999;stroke-linecap:round;stroke-linejoin:round;stroke-miterlimit:4;stroke-dasharray:none;stroke-opacity:1"
       d="m -246.83177,205.1627 0.32297,90.91384 c 1.59397,38.20571 32.6594,68.50385 70.28512,68.55085 37.65961,-0.0214 68.71339,-30.30874 70.28512,-68.55085 l 0.32297,-90.91384 h -5.3e-4 -70.60912 -5.3e-4 z"
       id="path10563-0-6-2-2-9"
       inkscape:connector-curvature="0" />
    <path
       style="opacity:1;fill:#ff0000;fill-opacity:1;fill-rule:evenodd;stroke:#000000;stroke-width:3;stroke-linecap:round;stroke-linejoin:round;stroke-miterlimit:4;stroke-dasharray:none;stroke-opacity:1;paint-order:markers fill stroke"
       d="m 212.26562,1.5 v 98.67188 H 1.8574219 l 0.40625,112.19726 H 212.26562 v 98.67188 H 324.46289 V 212.36914 H 534.4668 l 0.40429,-112.19726 H 324.46289 V 1.5 h -56.10547 z"
       transform="matrix(0.26458333,0,0,0.26458333,-247.22865,204.76583)"
       id="rect889"
       inkscape:connector-curvature="0" />
    <path
       style="opacity:1;fill:#ffffff;fill-opacity:1;fill-rule:evenodd;stroke:#000000;stroke-width:3;stroke-linecap:round;stroke-linejoin:round;stroke-miterlimit:4;stroke-dasharray:none;stroke-opacity:1;paint-order:markers fill stroke"
       d="M 2.5957031 309.90625 L 2.7207031 345.11133 C 8.7451567 489.51086 126.15779 604.02353 268.36523 604.20117 C 410.70077 604.12029 528.06937 489.64844 534.00977 345.11133 L 534.13477 309.90625 L 2.5957031 309.90625 z "
       transform="matrix(0.26458333,0,0,0.26458333,-247.22865,204.76583)"
       id="rect1038" />
    <path
       style="fill:none;fill-rule:evenodd;stroke:#000000;stroke-width:3;stroke-linecap:round;stroke-linejoin:round;stroke-miterlimit:4;stroke-dasharray:none;stroke-opacity:1"
       d="M 1.5,1.5 2.7207031,345.11133 C 8.7451567,489.51086 126.15779,604.02353 268.36523,604.20117 410.70077,604.12029 528.06941,489.64844 534.00977,345.11133 L 535.23047,1.5 h -0.002 -266.86914 -0.002 z"
       transform="matrix(0.26458333,0,0,0.26458333,-247.22865,204.76583)"
       id="path10563-0-6-2-2"
       inkscape:connector-curvature="0" />
    <path
       inkscape:connector-curvature="0"
       style="opacity:1;fill:#000000;fill-opacity:1;fill-rule:evenodd;stroke:#000000;stroke-width:0.79374999;stroke-linecap:round;stroke-linejoin:round;stroke-miterlimit:4;stroke-dasharray:none;stroke-opacity:1;paint-order:markers fill stroke"
       d="m -244.90159,288.83951 0.36094,8.8176 c 1.53279,36.16686 32.13527,64.84814 68.31697,64.89262 36.2143,-0.0203 66.27662,-28.69131 67.78803,-64.89262 l 0.36072,-8.8176 z"
       id="rect1038-7"
       sodipodi:nodetypes="cccccc" />
    <path
       style="opacity:1;fill:#ff0000;fill-opacity:1;fill-rule:evenodd;stroke:#000000;stroke-width:3;stroke-linecap:round;stroke-linejoin:round;stroke-miterlimit:4;stroke-dasharray:none;stroke-opacity:1;paint-order:markers fill stroke"
       d="M 14.550781 317.75977 L 11.878906 323.61133 L 60.53125 345.82227 L 73.341797 317.75977 L 14.550781 317.75977 z M 60.53125 345.82227 L 38.320312 394.47461 L 86.972656 416.68555 L 109.18359 368.0332 L 60.53125 345.82227 z M 109.18359 368.0332 L 157.83594 390.24414 L 180.04688 341.5918 L 131.39453 319.38086 L 109.18359 368.0332 z M 157.83594 390.24414 L 135.625 438.89648 L 184.27734 461.10742 L 206.48828 412.45508 L 157.83594 390.24414 z M 206.48828 412.45508 L 255.14062 434.66602 L 277.35156 386.01367 L 228.69922 363.80273 L 206.48828 412.45508 z M 255.14062 434.66602 L 232.92969 483.31836 L 281.58203 505.5293 L 303.79297 456.87695 L 255.14062 434.66602 z M 303.79297 456.87695 L 352.44531 479.08984 L 374.65625 430.4375 L 326.00391 408.22656 L 303.79297 456.87695 z M 352.44531 479.08984 L 330.23438 527.74023 L 378.88672 549.95312 L 401.09766 501.30078 L 352.44531 479.08984 z M 401.09766 501.30078 L 447.99219 522.70898 C 449.31143 521.41526 450.61688 520.10884 451.9082 518.78711 L 471.96094 474.85938 L 423.30859 452.64844 L 401.09766 501.30078 z M 11.878906 323.61133 L 8.9804688 322.28906 L 9.2695312 329.32812 L 11.878906 323.61133 z "
       transform="matrix(0.26458333,0,0,0.26458333,-247.22865,204.76583)"
       id="rect1086-33" />
    <path
       style="opacity:1;fill:#ffffff;fill-opacity:1;fill-rule:evenodd;stroke:#000300;stroke-width:3;stroke-linecap:round;stroke-linejoin:round;stroke-miterlimit:4;stroke-dasharray:none;stroke-opacity:1;paint-order:markers fill stroke"
       d="M 73.341797 317.75977 L 60.53125 345.82227 L 109.18359 368.0332 L 131.39453 319.38086 L 127.84375 317.75977 L 73.341797 317.75977 z M 109.18359 368.0332 L 86.972656 416.68555 L 135.625 438.89648 L 157.83594 390.24414 L 109.18359 368.0332 z M 157.83594 390.24414 L 206.48828 412.45508 L 228.69922 363.80273 L 180.04688 341.5918 L 157.83594 390.24414 z M 206.48828 412.45508 L 184.27734 461.10742 L 232.92969 483.31836 L 255.14062 434.66602 L 206.48828 412.45508 z M 255.14062 434.66602 L 303.79297 456.87695 L 326.00391 408.22656 L 277.35156 386.01367 L 255.14062 434.66602 z M 303.79297 456.87695 L 281.58203 505.5293 L 330.23438 527.74023 L 352.44531 479.08984 L 303.79297 456.87695 z M 352.44531 479.08984 L 401.09766 501.30078 L 423.30859 452.64844 L 374.65625 430.4375 L 352.44531 479.08984 z M 401.09766 501.30078 L 378.88672 549.95312 L 400.21484 559.68945 C 417.56641 549.25048 433.6015 536.82132 447.99219 522.70898 L 401.09766 501.30078 z M 60.53125 345.82227 L 11.878906 323.61133 L 9.2695312 329.32812 L 10.160156 351.08594 C 10.621916 361.98138 11.78676 372.69399 13.599609 383.18945 L 38.322266 394.47461 L 60.53125 345.82227 z M 471.96094 474.85938 L 451.9082 518.78711 C 463.51539 506.90658 473.98548 493.90814 483.13086 479.95898 L 471.96094 474.85938 z "
       transform="matrix(0.26458333,0,0,0.26458333,-247.22865,204.76583)"
       id="rect1086-3-6" />
    <path
       style="opacity:1;fill:#ffffff;fill-opacity:1;fill-rule:evenodd;stroke:#000000;stroke-width:3;stroke-linecap:round;stroke-linejoin:round;stroke-miterlimit:4;stroke-dasharray:none;stroke-opacity:1;paint-order:markers fill stroke"
       d="M 8.7949219 317.75977 L 8.9804688 322.28906 L 11.878906 323.61133 L 14.550781 317.75977 L 8.7949219 317.75977 z M 11.878906 323.61133 L 9.2695312 329.32812 L 10.160156 351.08594 C 10.621916 361.98137 11.78676 372.69399 13.599609 383.18945 L 38.320312 394.47461 L 60.53125 345.82227 L 11.878906 323.61133 z M 60.53125 345.82227 L 109.18359 368.0332 L 131.39453 319.38086 L 127.84375 317.75977 L 73.341797 317.75977 L 60.53125 345.82227 z M 109.18359 368.0332 L 86.972656 416.68555 L 135.625 438.89648 L 157.83594 390.24414 L 109.18359 368.0332 z M 157.83594 390.24414 L 206.48828 412.45703 L 228.69922 363.80469 L 180.04688 341.59375 L 157.83594 390.24414 z M 206.48828 412.45703 L 184.27734 461.10742 L 232.92969 483.32031 L 255.14062 434.66797 L 206.48828 412.45703 z M 255.14062 434.66797 L 302.03516 456.07617 C 303.3544 454.78244 304.65986 453.47604 305.95117 452.1543 L 326.00391 408.22656 L 277.35156 386.01562 L 255.14062 434.66797 z "
       transform="matrix(0.26458333,0,0,0.26458333,-247.22865,204.76583)"
       id="rect1086-33-2" />
  </g>
</svg>

<svg xmlns="http://www.w3.org/2000/svg" width="536.73" height="605.701" viewBox="0 0 142.01 160.258"><path style="fill:#fff;fill-rule:evenodd;stroke:none;stroke-width:.79374999;stroke-linecap:round;stroke-linejoin:round;stroke-miterlimit:4;stroke-dasharray:none;stroke-opacity:1" d="m-246.832 205.163.323 90.914c1.594 38.205 32.66 68.503 70.285 68.55 37.66-.021 68.714-30.308 70.285-68.55l.323-90.914h-70.61z" transform="translate(247.229 -204.766)"/><path style="opacity:1;fill:red;fill-opacity:1;fill-rule:evenodd;stroke:#000;stroke-width:3;stroke-linecap:round;stroke-linejoin:round;stroke-miterlimit:4;stroke-dasharray:none;stroke-opacity:1;paint-order:markers fill stroke" d="M212.266 1.5v98.672H1.857l.407 112.197h210.002v98.672h112.197v-98.672h210.004l.404-112.197H324.463V1.5h-56.106z" transform="scale(.26458)"/><path style="opacity:1;fill:#fff;fill-opacity:1;fill-rule:evenodd;stroke:#000;stroke-width:3;stroke-linecap:round;stroke-linejoin:round;stroke-miterlimit:4;stroke-dasharray:none;stroke-opacity:1;paint-order:markers fill stroke" d="m2.596 309.906.125 35.205c6.024 144.4 123.437 258.913 265.644 259.09 142.336-.08 259.704-114.553 265.645-259.09l.125-35.205H2.595z" transform="scale(.26458)"/><path style="fill:none;fill-rule:evenodd;stroke:#000;stroke-width:3;stroke-linecap:round;stroke-linejoin:round;stroke-miterlimit:4;stroke-dasharray:none;stroke-opacity:1" d="m1.5 1.5 1.22 343.611c6.025 144.4 123.438 258.913 265.645 259.09 142.336-.08 259.704-114.553 265.645-259.09L535.23 1.5H268.357z" transform="scale(.26458)"/><path style="opacity:1;fill:#000;fill-opacity:1;fill-rule:evenodd;stroke:#000;stroke-width:.79374999;stroke-linecap:round;stroke-linejoin:round;stroke-miterlimit:4;stroke-dasharray:none;stroke-opacity:1;paint-order:markers fill stroke" d="m-244.902 288.84.361 8.817c1.533 36.167 32.136 64.848 68.317 64.893 36.215-.02 66.277-28.692 67.788-64.893l.361-8.817z" transform="translate(247.229 -204.766)"/><path style="opacity:1;fill:red;fill-opacity:1;fill-rule:evenodd;stroke:#000;stroke-width:3;stroke-linecap:round;stroke-linejoin:round;stroke-miterlimit:4;stroke-dasharray:none;stroke-opacity:1;paint-order:markers fill stroke" d="m14.55 317.76-2.671 5.851 48.652 22.211 12.81-28.062h-58.79zm45.981 28.062-22.21 48.653 48.652 22.21 22.21-48.652-48.652-22.21zm48.653 22.211 48.652 22.211 22.21-48.652-48.651-22.211-22.211 48.652zm48.652 22.211-22.211 48.652 48.652 22.211 22.211-48.652-48.652-22.21zm48.652 22.211 48.653 22.211 22.21-48.652-48.652-22.211-22.21 48.652zm48.653 22.211-22.211 48.652 48.652 22.211 22.211-48.652-48.652-22.211zm48.652 22.211 48.652 22.213 22.211-48.652-48.652-22.211-22.211 48.65zm48.652 22.213-22.21 48.65 48.652 22.213 22.21-48.652-48.652-22.211zm48.653 22.21 46.894 21.409c1.32-1.294 2.625-2.6 3.916-3.922l20.053-43.928-48.652-22.21-22.211 48.652zM11.878 323.612 8.98 322.29l.29 7.04 2.609-5.718z" transform="scale(.26458)"/><path style="opacity:1;fill:#fff;fill-opacity:1;fill-rule:evenodd;stroke:#000300;stroke-width:3;stroke-linecap:round;stroke-linejoin:round;stroke-miterlimit:4;stroke-dasharray:none;stroke-opacity:1;paint-order:markers fill stroke" d="m73.342 317.76-12.81 28.062 48.652 22.211 22.21-48.652-3.55-1.621H73.342zm35.842 50.273-22.211 48.653 48.652 22.21 22.21-48.652-48.651-22.21zm48.652 22.211 48.652 22.211 22.211-48.652-48.652-22.211-22.211 48.652zm48.652 22.211-22.21 48.652 48.652 22.211 22.21-48.652-48.652-22.21zm48.653 22.211 48.652 22.211 22.21-48.65-48.651-22.213-22.211 48.652zm48.652 22.211-22.211 48.652 48.652 22.211 22.211-48.65-48.652-22.213zm48.652 22.213 48.653 22.21 22.21-48.652-48.652-22.21-22.21 48.652zm48.653 22.21-22.211 48.653 21.328 9.736a258.823 258.823 0 0 0 47.777-36.98l-46.894-21.408zM60.53 345.823l-48.652-22.21-2.61 5.716.891 21.758a250.963 250.963 0 0 0 3.44 32.103l24.722 11.286 22.21-48.653zm411.43 129.037-20.053 43.928a258.004 258.004 0 0 0 31.223-38.828l-11.17-5.1z" transform="scale(.26458)"/><path style="opacity:1;fill:#fff;fill-opacity:1;fill-rule:evenodd;stroke:#000;stroke-width:3;stroke-linecap:round;stroke-linejoin:round;stroke-miterlimit:4;stroke-dasharray:none;stroke-opacity:1;paint-order:markers fill stroke" d="m8.795 317.76.185 4.53 2.899 1.321 2.672-5.851H8.795zm3.084 5.851-2.61 5.717.891 21.758a250.963 250.963 0 0 0 3.44 32.103l24.72 11.286 22.211-48.653-48.652-22.21zm48.652 22.211 48.653 22.211 22.21-48.652-3.55-1.621H73.342l-12.81 28.062zm48.653 22.211-22.211 48.653 48.652 22.21 22.21-48.652-48.651-22.21zm48.652 22.211 48.652 22.213 22.211-48.652-48.652-22.211-22.211 48.65zm48.652 22.213-22.21 48.65 48.652 22.213 22.21-48.652-48.652-22.211zm48.653 22.211 46.894 21.408c1.32-1.294 2.625-2.6 3.916-3.922l20.053-43.927-48.652-22.211-22.211 48.652z" transform="scale(.26458)"/></svg>
